X:1
T: Nell Kennedy
C:
R:Jig
Q:180
K:G
M:6/8
L:1/16
A2|B4F2 A4F2|G2F2D2 F2G2A2|B2A2G2 A4F2|G4g2 f2d2c2|B4G2 A4F2|G2F2D2 F2G2A2|B2A2G2 F2D2F2|G6G4A2|
B4F2 A4F2|G2F2D2 F2G2A2|B2A2G2 A4F2|G4g2 f2d2c2|B4G2 A4F2|G2F2D2 F2G2A2|B2A2G2 F2D2F2|G6G4A2|
Bcd2e2 f2d2f2|g2a2g2 f2d2c2|Bcd2e2 f2e2f2|g6G4A2|Bcd2e2 f2d2f2|g2a2g2 f2d2c2|B2A2G2 F2D2F2|G6G4A2|
Bcd2e2 f2d2f2|g2a2g2 f2d2c2|Bcd2e2 f2e2f2|g6g4a2|b2a2g2 g2a2g2|f2d2B2 c2d2e2|f2e2d2 c2A2F2|G6G4||
